packages/icons/src/card-plus-fill.svg

<svg width="24" height="24" viewBox="0 0 24 24" fill="none" xmlns="http://www.w3.org/2000/svg">
<path d="M20 4C21.0544 4 21.9182 4.81588 21.9945 5.85074L22 6V9H2V6C2 4.94564 2.81588 4.08183 3.85074 4.00549L4 4H20Z" fill="black"/>
<path fill-rule="evenodd" clip-rule="evenodd" d="M22 11H2V18L2.00549 18.1493C2.08183 19.1841 2.94564 20 4 20H18V18H15V16H18V13H20V16H22V11ZM20 18H22C22 19.0544 21.1841 19.9182 20.1493 19.9945L20 20V18ZM5.99512 14H10.0166V16H5.99512V14Z" fill="black"/>
<path d="M23 18V16H22V18H23Z" fill="black"/>
<path d="M20 21V20H18V21H20Z" fill="black"/>
</svg>

<svg xmlns="http://www.w3.org/2000/svg" width="24" height="24" fill="none" viewBox="0 0 24 24">
  <path fill="#000" d="M20 4a2 2 0 0 1 1.994 1.85L22 6v3H2V6a2 2 0 0 1 1.85-1.995L4 4h16Z"/>
  <path fill="#000" fill-rule="evenodd" d="M22 11H2v7l.005.15A2 2 0 0 0 4 20h14v-2h-3v-2h3v-3h2v3h2v-5Zm-2 7h2a2 2 0 0 1-1.85 1.994L20 20v-2ZM5.995 14h4.022v2H5.995v-2Z" clip-rule="evenodd"/>
  <path fill="#000" d="M23 18v-2h-1v2h1Zm-3 3v-1h-2v1h2Z"/>
</svg>
